X:5009
T:Raughlan
M:6/8
L:1/8
Q:180
C:Aidan Crossey
R:Jig
K:D
|:Adc Bcd|AFD AFD|Adc Bcd|fed cBA|
Adc Bcd|AFD AFD|dcB AGF|EAF D3:||
|:fed Bdg|Bdg Bdg|fed Bdg|fed B2A|
fed Bdg|Bdg Bdg|fed Bdg|fBc d3:||
